X:15002
T:O Come, O Come Emmanuel
T:Veni Emmanuel
R:March
C:Trad. 15C, Arr Anderson (PD)
O:France
Z:Paul Hardy's Xmas Parts Tunebook 2022 (see www.paulhardy.net). Creative Commons cc by-nc-sa licenced.
M:4/4
L:1/4
Q:1/4=120
P:AB2
K:Em
P:A
V:1
%%score [1]
%%partsbox 1
%%voicecolor black
%%MIDI program 23 % Tango Accd.
A|B G E G|A F E D|E3||
%%score [1 2 3 4]
P:B
V:1
%%voicecolor black
%%MIDI program 23 % Tango Accd.
E|"Em"G B BB|"Am"A c "D"B A|"G"G3 A|"Em"B G EG|"D"A F ED|"Em" E3A|
"Am" A E EF|"C"G2 FE|"D"D3G|"Em" A B B B|"Am"A c "D"B A|"G"G3 d||
"D"d3 B|"B7"B3 "Em"B|"Am"A c "D"B A|"G"G3 A|"Em"B G E G|"Am"A F "D"E D|"Em"E3|]
V:2
%%voicecolor maroon
%%MIDI program 65 % Alto Sax
E|E B, D G|G3 F|D3 D|D D C D|(E C B,) B,|B,3 (E/D/)|
C A, E ^D|(E =D D) ^C|D3 B,|D D D G|G3 F|G3 G|
F3 G|F3 G|G3 F|G3 F|G D C D|(E C B,) B,|B,3|]
V:3 clef=treble-8 transpose = -12
%%voicecolor teal
%%MIDI program 42 % Cello
G|B F G d|(e2 d) c|B3 F|G G G B|(A2 G) F|G3 A|
A c B A|(G2 A) G|F3 G|F F G d|(e2 d) c|B3 B|
A3 e|d3 d|(e2 d) c|B3 d|d G G B|(A2 G) F|G3|]
V:4 clef=treble-8 transpose= -12
%%voicecolor blue
%%MIDI program 32 % Acoustic Bass
E|E D B, G,|(C A, B,) D|G3 D|G, B, C B,|(C A, B,) B,|E3 (C/2B,/2)|
A, A G F|(E B, A,) A,|F3 G|F B, G, B,|(C A, B,) D|G,3 G|
D3 E|B,3 G,|(C A, B,) D|E3 D|G, B, C B,|(C A,) B, B,|E3|]
W:O come, O come, Emmanuel,
W:And ransom captive Israel,
W:That mourns in lonely exile here
W:Until the Son of God appear.
W:Rejoice! Rejoice!
W:Emmanuel shall come to thee, O Israel.
W:
W:(Trans. John Neale of 12C Veni, veni, Emmanuel)

